static/logos/vowel-wordmark-color.svg

<svg width="120" height="27" viewBox="0 0 120 27" fill="none" xmlns="http://www.w3.org/2000/svg">
<g clip-path="url(#clip0_1_451)">
<path fill-rule="evenodd" clip-rule="evenodd" d="M69.7853 17.5912L65.7839 2.70073C65.4201 1.45985 64.4743 0.656934 63.3102 0.656934C62.2189 0.656934 61.2003 1.38686 60.8368 2.70073L56.6898 17.6642C56.4715 18.2482 55.9621 18.2482 55.8893 17.5912L53.2703 0.729927C53.2703 0.510949 53.052 0.364964 52.8336 0.364964H47.2318C47.0135 0.364964 46.8679 0.583942 46.8679 0.80292V0.875912L52.0334 25.3285C52.1062 25.6204 52.3245 25.7664 52.6156 25.7664H58.2175C58.4358 25.7664 58.6541 25.5474 58.7269 25.3285L62.6555 11.3869C62.8011 10.9489 63.383 10.9489 63.4557 11.3869L67.1664 25.3285C67.2391 25.5474 67.4575 25.7664 67.6755 25.7664H73.3504C73.5687 25.7664 73.8595 25.5474 73.8595 25.3285L79.0253 0.875912C79.0981 0.656934 78.8798 0.364964 78.5887 0.364964H73.5687C73.3504 0.364964 73.2049 0.510949 73.1321 0.729927L70.5859 17.5182C70.5131 18.1752 69.9309 18.1752 69.7853 17.5912ZM20.822 21.3869H2.19695C1.83318 21.3869 1.46941 21.6788 1.46941 22.1168V25.1825C1.46941 25.5474 1.76043 25.9124 2.19695 25.9124H20.822C21.1858 25.9124 21.5495 25.6204 21.5495 25.1825V22.1168C21.5495 21.6788 21.2585 21.3869 20.822 21.3869ZM23.0046 1.0219C23.1501 0.80292 23.0774 0.583941 22.8591 0.510949C22.7864 0.437956 22.7136 0.437956 22.6408 0.437956H17.3298C17.1843 0.437956 17.0388 0.510949 16.966 0.656934L12.0187 11.0219C11.946 11.2409 11.655 11.3139 11.4367 11.2409C11.364 11.1679 11.2912 11.1679 11.2184 11.0219L6.41667 0.656934C6.34392 0.510949 6.1984 0.437956 6.05292 0.437956H0.450854C0.0870821 0.437956 -0.13118 0.729927 0.0870821 1.09489L8.89032 17.6642C9.61786 19.1241 10.6364 19.562 11.5822 19.562C12.528 19.562 13.4738 19.1241 14.2741 17.6642L23.0046 1.0219ZM119.622 21.3869H111.11C110.891 21.3869 110.673 21.1679 110.673 20.9489V0.80292C110.673 0.583942 110.455 0.364964 110.237 0.364964H104.998C104.78 0.364964 104.562 0.583942 104.562 0.80292V25.4745C104.562 25.6934 104.78 25.9124 104.998 25.9124H119.549C119.767 25.9124 119.986 25.6934 119.986 25.4745V21.8248C120.059 21.6058 119.84 21.3869 119.622 21.3869ZM91.1751 0C85.3549 0 80.6985 3.79562 80.6985 13.2117C80.6985 22.7737 85.2094 26.2774 91.3934 26.2774C96.3406 26.2774 99.8329 23.7956 100.851 19.2701C100.924 19.0511 100.779 18.8321 100.56 18.7591L96.4134 17.5912C96.195 17.5182 95.9043 17.6642 95.9043 17.8832C95.2493 20.7299 93.9399 21.6788 91.539 21.6788C88.8469 21.6788 87.0281 20 86.8826 14.7445H100.56C100.779 14.7445 100.997 14.5255 100.997 14.3066V11.5328C100.997 4.37956 97.3591 0 91.1751 0ZM95.1037 10.5839H86.8826C86.9554 6.35036 88.7741 4.37956 91.1751 4.37956C93.8672 4.45255 95.1037 6.71533 95.1037 10.5839ZM34.3543 0C28.0246 0 23.8049 3.94161 23.8049 13.1387C23.8049 22.3358 28.0246 26.2774 34.3543 26.2774C40.6839 26.2774 44.8308 22.3358 44.8308 13.1387C44.8308 3.94161 40.6839 0 34.3543 0ZM34.3543 21.8248C31.8806 21.8248 30.1345 19.781 30.1345 13.1387C30.1345 6.49635 31.8078 4.52555 34.3543 4.52555C36.9005 4.52555 38.574 6.56934 38.574 13.1387C38.574 19.781 36.9005 21.8248 34.3543 21.8248Z" fill="black"/>
</g>
<defs>
<clipPath id="clip0_1_451">
<rect width="120" height="27" fill="white"/>
</clipPath>
</defs>
</svg>

<svg xmlns="http://www.w3.org/2000/svg" width="284.444" height="64" fill="none" viewBox="0 0 120 27"><g clip-path="url(#a)"><path fill="#000" fill-rule="evenodd" d="m69.785 17.591-4.001-14.89C65.42 1.46 64.474.657 63.31.657c-1.091 0-2.11.73-2.473 2.044L56.69 17.664c-.218.584-.728.584-.8-.073L53.27.73c0-.22-.218-.365-.436-.365h-5.602c-.218 0-.364.219-.364.438v.073l5.165 24.452c.073.292.291.438.583.438h5.602c.218 0 .436-.219.509-.438l3.929-13.941c.145-.438.727-.438.8 0l3.71 13.941c.073.22.291.438.51.438h5.674c.219 0 .51-.219.51-.438L79.025.876c.073-.22-.145-.511-.436-.511h-5.02c-.219 0-.364.146-.437.365l-2.546 16.788c-.073.657-.655.657-.8.073Zm-48.963 3.796H2.197a.73.73 0 0 0-.728.73v3.066c0 .364.291.73.728.73h18.625a.73.73 0 0 0 .727-.73v-3.066c0-.438-.29-.73-.727-.73Zm2.183-20.365c.145-.22.072-.438-.146-.511-.073-.073-.145-.073-.218-.073H17.33a.4.4 0 0 0-.364.219l-4.947 10.365c-.073.219-.364.292-.582.219-.073-.073-.146-.073-.219-.22L6.417.658a.4.4 0 0 0-.364-.219H.45c-.364 0-.582.292-.364.657l8.803 16.57c.728 1.46 1.746 1.897 2.692 1.897.946 0 1.892-.438 2.692-1.898l8.73-16.642Zm96.617 20.365h-8.512c-.219 0-.437-.22-.437-.438V.803c0-.22-.218-.438-.436-.438h-5.239c-.218 0-.436.219-.436.438v24.671c0 .22.218.438.436.438h14.551c.218 0 .437-.219.437-.438v-3.65c.073-.218-.146-.437-.364-.437ZM91.175 0c-5.82 0-10.477 3.796-10.477 13.212 0 9.562 4.511 13.065 10.695 13.065 4.948 0 8.44-2.481 9.458-7.007.073-.219-.072-.438-.291-.51l-4.147-1.169c-.218-.073-.509.073-.509.292-.655 2.847-1.964 3.796-4.365 3.796-2.692 0-4.51-1.679-4.656-6.934h13.677c.219 0 .437-.22.437-.438v-2.774C100.997 4.38 97.359 0 91.175 0Zm3.929 10.584h-8.221c.072-4.234 1.891-6.204 4.292-6.204 2.692.073 3.929 2.335 3.929 6.204ZM34.354 0c-6.33 0-10.55 3.942-10.55 13.139s4.22 13.138 10.55 13.138c6.33 0 10.477-3.941 10.477-13.138S40.684 0 34.354 0Zm0 21.825c-2.473 0-4.22-2.044-4.22-8.686 0-6.643 1.674-8.613 4.22-8.613 2.547 0 4.22 2.043 4.22 8.613 0 6.642-1.673 8.686-4.22 8.686Z" clip-rule="evenodd"/></g><defs><clipPath id="a"><path fill="#fff" d="M0 0h120v27H0z"/></clipPath></defs></svg>
